source/images/adrianmejia-logo.svg

<?xml version="1.0" encoding="UTF-8" standalone="no"?>
<svg width="194px" height="29px" viewBox="0 0 194 29" version="1.1" xmlns="http://www.w3.org/2000/svg" xmlns:xlink="http://www.w3.org/1999/xlink">
    <!-- Generator: Sketch 39.1 (31720) - http://www.bohemiancoding.com/sketch -->
    <title>adrianmejia-logo</title>
    <desc>Created with Sketch.</desc>
    <defs>
        <rect id="path-1" x="0" y="0" width="29.9377593" height="27.7124664"></rect>
        <path d="M29.9377593,21.8834624 L29.9377593,26.2600057 L27.6481912,27.5988907 L27.6481912,14.883025 C27.6481912,14.5485834 27.5653692,14.1997873 27.4004614,13.8366366 C27.2353696,13.4744181 26.9872717,13.1192836 26.657088,12.7704874 C26.2720577,12.380492 25.8695428,12.1083154 25.4489911,11.9552627 C25.030464,11.8014643 24.428072,11.7252175 23.6434716,11.7252175 L14.5418863,11.7252175 L0,11.7252175 L0,8.75308668 L7.48508401,4.37663655 L14.9688797,0 L22.4528594,4.37663655 L29.9377593,8.7532731 L29.9377593,13.1300961 L29.9377593,21.8834624 L29.9377593,21.8834624 Z" id="path-3"></path>
        <polygon id="path-5" points="8.78189554 0.00478499318 8.71369295 27.7282158 0.0253228658 22.636009 0.0253228658 5.12315663"></polygon>
        <rect id="path-7" x="21.0684647" y="-1.02697095" width="8.68257261" height="29.906639"></rect>
        <mask id="mask-8" maskContentUnits="userSpaceOnUse" maskUnits="objectBoundingBox" x="0" y="0" width="8.68257261" height="29.906639" fill="white">
            <use xlink:href="#path-7"></use>
        </mask>
        <polygon id="path-9" points="8.77593361 0.0292568667 8.74738487 27.7392912 0.039857601 22.6698112 0.0263135733 5.16657378"></polygon>
        <rect id="path-11" x="21.0373444" y="-0.995850622" width="8.58921162" height="29.8755187"></rect>
        <mask id="mask-12" maskContentUnits="userSpaceOnUse" maskUnits="objectBoundingBox" x="0" y="0" width="8.58921162" height="29.8755187" fill="white">
            <use xlink:href="#path-11"></use>
        </mask>
    </defs>
    <g id="Logo-Final" stroke="none" stroke-width="1" fill="none" fill-rule="evenodd">
        <g id="adrianmejia-logo" transform="translate(0.000000, -2.000000)">
            <g id="Logo" transform="translate(36.000000, 0.000000)" font-size="25" font-family="Orbitron-Regular, Orbitron" font-weight="normal">
                <text id="Adrian" fill="#0E557E">
                    <tspan x="0" y="24">Adrian</tspan>
                </text>
                <text id="Mejia" fill="#7E8183">
                    <tspan x="91" y="24">Mejia</tspan>
                </text>
            </g>
            <g id="adrianmejia-new-logo" transform="translate(0.000000, 2.000000)">
                <g id="newlogo" transform="translate(0.031120, 0.031120)">
                    <g id="logo-adrianmejia">
                        <mask id="mask-2" fill="white">
                            <use xlink:href="#path-1"></use>
                        </mask>
                        <g id="Mask"></g>
                        <g mask="url(#mask-2)">
                            <g transform="translate(0.000000, -3.634422)">
                                <path d="M24.6390409,29.3435812 L22.4199283,30.6432814 L14.9469864,35.0191686 L7.47404455,30.6432814 L0,26.2670215 L0,17.5152471 L0,14.1600336 L9.98370922,14.1600336 C10.3681716,14.1600336 10.6736097,14.1976845 10.9005748,14.2750365 C11.12754,14.3514566 11.3228954,14.4798796 11.4877438,14.6612374 C11.6527759,14.8420361 11.7630424,15.0135152 11.8172567,15.1739974 C11.8703684,15.329447 11.8986701,15.5005533 11.9003241,15.6878757 L11.9003241,15.6971952 L11.9003241,15.7063283 L11.9003241,16.2917805 L6.76723653,16.2917805 C6.08064403,16.2917805 5.47601627,16.4942005 4.95335324,16.8982949 C4.30811066,17.4142235 3.92272938,18.1316401 3.79941472,19.0512903 C3.79941472,19.1068346 3.78544763,19.1976067 3.75824857,19.3226747 L3.75824857,19.5739289 C3.75824857,20.2145527 3.90968118,20.7793156 4.21125995,21.2672856 C4.51357383,21.7554421 4.94692103,22.1384743 5.51001509,22.4175007 C5.96394536,22.6256988 6.45169067,22.7304502 6.97361859,22.7304502 L11.9003241,22.7304502 L14.8690648,22.7304502 L14.8690648,16.4794757 L14.8690648,16.1031535 L14.8690648,16.0847008 L14.8690648,16.0669937 L14.8690648,16.049473 L14.8690648,14.1591017 L18.2485481,14.1591017 L18.2485481,22.7300774 L21.217105,22.7300774 L21.217105,14.1591017 L23.2581372,14.1591017 C23.7392665,14.1591017 24.1334691,14.408492 24.4335777,14.9119325 C24.5726972,15.1462252 24.6390409,15.4487368 24.6390409,15.8101478 L24.6390409,29.3435812 Z M11.9003241,18.3618322 L8.1488753,18.3618322 C7.80521149,18.3618322 7.50602183,18.4693795 7.25185763,18.6852195 C6.99732588,18.9018052 6.87070323,19.1489588 6.87070323,19.4277989 C6.87070323,19.6926596 6.98023458,19.9017896 7.20058373,20.0555617 L7.4679799,20.2007598 C7.7017448,20.2848219 7.8947111,20.3267597 8.0454086,20.3267597 L11.9005079,20.3267597 L11.9005079,18.3618322 L11.9003241,18.3618322 Z" id="Fill-1" stroke="none" fill="#7E8183" fill-rule="evenodd"></path>
                                <mask id="mask-4" fill="white">
                                    <use xlink:href="#path-3"></use>
                                </mask>
                                <use id="Clip-4" stroke="none" fill="#0E557E" fill-rule="evenodd" xlink:href="#path-3"></use>
                            </g>
                        </g>
                    </g>
                </g>
                <g id="Group" transform="translate(0.000000, 0.031120)">
                    <mask id="mask-6" fill="white">
                        <use xlink:href="#path-5"></use>
                    </mask>
                    <use id="Rectangle-3" fill-opacity="0.15" fill="#FFFFFF" xlink:href="#path-5"></use>
                    <g id="Rectangle-4" mask="url(#mask-6)" stroke-width="2" stroke="#979797" fill="#D8D8D8">
                        <use mask="url(#mask-8)" xlink:href="#path-7"></use>
                    </g>
                </g>
                <g id="Group" transform="translate(25.612033, 13.879668) scale(-1, 1) translate(-25.612033, -13.879668) translate(21.224066, 0.000000)">
                    <mask id="mask-10" fill="white">
                        <use xlink:href="#path-9"></use>
                    </mask>
                    <use id="Rectangle-3" fill-opacity="0.0869999975" fill="#000000" xlink:href="#path-9"></use>
                    <g id="Rectangle-4" mask="url(#mask-10)" stroke-width="2" stroke="#979797" fill="#D8D8D8">
                        <use mask="url(#mask-12)" xlink:href="#path-11"></use>
                    </g>
                </g>
            </g>
        </g>
    </g>
</svg>

<svg width="194" height="29" viewBox="0 0 194 29" xmlns="http://www.w3.org/2000/svg" xmlns:xlink="http://www.w3.org/1999/xlink"><title>adrianmejia-logo</title><defs><path id="c" d="M0 0h29.938v27.712H0z"/><path d="M29.938 21.883v4.377l-2.29 1.339V14.883c0-.334-.083-.683-.248-1.046a3.953 3.953 0 0 0-.743-1.067c-.385-.39-.787-.662-1.208-.815-.419-.154-1.02-.23-1.806-.23H0V8.753l7.485-4.376L14.97 0l7.484 4.377 7.485 4.376V21.883z" id="e"/><path id="f" d="M8.782.005l-.068 27.723-8.689-5.092V5.123z"/><path id="a" d="M21.068-1.027h8.683V28.88h-8.683z"/><mask id="h" x="0" y="0" width="8.683" height="29.907" fill="#fff"><use xlink:href="#a"/></mask><path id="i" d="M8.776.03l-.029 27.71L.04 22.67.026 5.167z"/><path id="b" d="M21.037-.996h8.589V28.88h-8.589z"/><mask id="k" x="0" y="0" width="8.589" height="29.876" fill="#fff"><use xlink:href="#b"/></mask></defs><g fill="none" fill-rule="evenodd"><g font-size="25" font-family="Orbitron-Regular, Orbitron"><text fill="#0E557E" transform="translate(36 -2)"><tspan x="0" y="24">Adrian</tspan></text><text fill="#7E8183" transform="translate(36 -2)"><tspan x="91" y="24">Mejia</tspan></text></g><g transform="translate(.031 .031)"><mask id="d" fill="#fff"><use xlink:href="#c"/></mask><g mask="url(#d)"><g transform="translate(0 -3.634)"><path d="M24.639 29.344l-2.22 1.3-7.472 4.375-7.473-4.376L0 26.267V14.16h9.984c.384 0 .69.038.917.115.227.076.422.205.587.386.165.181.275.353.33.513.052.155.08.327.082.514v.604H6.767c-.686 0-1.291.202-1.814.606-.645.516-1.03 1.234-1.154 2.153 0 .056-.014.147-.04.272v.25c0 .642.15 1.206.452 1.694.303.488.736.871 1.299 1.15.454.209.942.313 1.464.313H14.87V14.16h3.379v8.571h2.968v-8.57h2.041c.481 0 .875.248 1.176.752.139.234.205.537.205.898v13.534zM11.9 18.362H8.15c-.344 0-.643.107-.897.323-.255.217-.381.464-.381.743 0 .265.11.474.33.628l.267.145c.234.084.427.126.577.126h3.856v-1.965z" fill="#7E8183"/><use fill="#0E557E" xlink:href="#e"/></g></g></g><g transform="translate(0 .031)"><mask id="g" fill="#fff"><use xlink:href="#f"/></mask><use fill-opacity=".15" fill="#FFF" xlink:href="#f"/><g mask="url(#g)" stroke-width="2" stroke="#979797" fill="#D8D8D8"><use mask="url(#h)" xlink:href="#a"/></g></g><g transform="matrix(-1 0 0 1 30 0)"><mask id="j" fill="#fff"><use xlink:href="#i"/></mask><use fill-opacity=".087" fill="#000" xlink:href="#i"/><g mask="url(#j)" stroke-width="2" stroke="#979797" fill="#D8D8D8"><use mask="url(#k)" xlink:href="#b"/></g></g></g></svg>
